images/export.svg

<svg width="23" height="22" viewBox="0 0 23 22" fill="none" xmlns="http://www.w3.org/2000/svg">
<path d="M20.7807 0.778697L2.09979 0.883855C1.4593 0.88746 0.94335 1.40925 0.946956 2.04974L1.05212 20.7316C1.05572 21.3712 1.57751 21.8871 2.218 21.8835L12.276 21.8269L12.2302 13.6948L9.49323 13.7102L9.47539 10.541L12.2123 10.5256L12.1992 8.1885C12.1839 5.47604 13.832 3.98974 16.2522 3.97611C17.4115 3.96959 18.4077 4.05061 18.6985 4.08747L18.7144 6.92243L17.0362 6.93275C15.7202 6.94016 15.4691 7.5672 15.4743 8.48419L15.4857 10.508L18.6242 10.4904L18.2335 13.6619L15.5035 13.6772L15.5493 21.8085L20.9007 21.7784C21.5394 21.7748 22.0554 21.253 22.0518 20.6125L21.9466 1.93153C21.943 1.29104 21.4212 0.775092 20.7807 0.778697V0.778697Z" fill="#ABBCD5"/>
</svg>

<svg fill="none" height="22" width="23" xmlns="http://www.w3.org/2000/svg"><path d="M20.78.779L2.1.884A1.16 1.16 0 00.947 2.05l.105 18.682c.004.64.526 1.155 1.166 1.152l10.058-.057-.046-8.132-2.737.015-.018-3.169 2.737-.015-.013-2.337c-.015-2.713 1.633-4.2 4.053-4.213 1.16-.006 2.156.075 2.447.111l.015 2.835-1.678.01c-1.316.008-1.567.635-1.562 1.552l.012 2.024 3.138-.018-.39 3.172-2.73.015.045 8.132 5.352-.03a1.159 1.159 0 001.15-1.166l-.104-18.681A1.16 1.16 0 0020.78.779z" fill="#abbcd5"/></svg>
